X:1
T: The Muckin' o' Geordie's Byre
P:Kerr's version
R:Jig
Q:180
K:D
M:6/8
L:1/16
|:B2|A2B2A2 A2F2A2|d4e2 f4a2|g4e2 f4d2|e4d2 B2c2d2|
A2B2A2 A2F2A2|d4e2 f4g2|a2f2d2 e4f2|d6-d4:|
|:f2|g4g2 g2a2g2|f4f2 f2g2f2|e4e2 e2f2g2|f2e2d2 B2c2d2|
A2B2A2 A2F2A2|d4e2 f4g2|a2f2d2 e4f2|d6-d2:|
